!!!COM: Music21
!!!OTL: strathspey_First-Light
!!!OMV: strathspey_First-Light
**kern
*clefG2
*k[f#c#]
*M4/4
=1
4a
16bKL
8.ddJ
8.eeL
16ddJk
16eeKL
8.ggJ
=
4a
16bKL
8.ddJ
4ee
4ee
=
4aa
8ggL
8eeJ
8.ddL
16bJk
16ddKL
8.eeJ
=
8.ggL
16eeJk
8ddL
8bJ
4ee
8eeL
16ddL
16bJJ
=||
*M4/4
4a
16bKL
8.ddJ
8.eeL
16ddJk
16eeKL
8.ggJ
!!linebreak:original
=
4a
16bKL
8.ddJ
4ee
4ee
=
4aa
8ggL
8eeJ
8.ddL
16bJk
16ddKL
8.eeJ
=
8.ggL
16eeJk
8ddL
8bJ
4ee
4ee
=||
4aa
8ggL
8eeJ
8.ddL
16eeJk
8ggL
8aaJ
=
8.bbL
16aaJk
16ggKL
8.eeJ
4gg
4aa
!!linebreak:original
=
8.bbL
16aaJk
8ggL
8eeJ
8.ddL
16eeJk
16bLL
16aJ
8gJ
=
4a
16bKL
8.ddJ
4ee
4ee
=||
*M4/4
4a
16bKL
8.ddJ
8.eeL
16ddJk
16eeKL
8.ggJ
=
4a
16bKL
8.ddJ
4ee
4ee
=
4aa
8ggL
8eeJ
8.ddL
16bJk
16ddKL
8.eeJ
!!linebreak:original
=
8.ggL
16eeJk
8ddL
8bJ
4ee
8eeL
16ddL
16bJJ
=||
*M4/4
4a
16bKL
8.ddJ
8.eeL
16ddJk
16eeKL
8.ggJ
=
4a
16bKL
8.ddJ
4ee
4ee
=
4aa
8ggL
8eeJ
8.ddL
16bJk
16ddKL
8.eeJ
=
8.ggL
16eeJk
8ddL
8bJ
4ee
4ee
!!linebreak:original
=||
4aa
8ggL
8eeJ
8.ddL
16eeJk
8ggL
8aaJ
=
8.bbL
16aaJk
16ggKL
8.eeJ
4gg
4aa
=
8.bbL
16aaJk
8ggL
8eeJ
8.ddL
16eeJk
16bLL
16aJ
8gJ
=
4a
16bKL
8.ddJ
4ee
8eeL
16ddL
16bJJ
=||
*-
